img/svg/editors/exclamation-circle.svg

<svg width="24" height="24" viewBox="0 0 24 24" fill="none" xmlns="http://www.w3.org/2000/svg">
<g clip-path="url(#clip0_13945_59927)">
<path d="M12 0.5C15.05 0.5 17.9752 1.7115 20.1318 3.86816C22.2885 6.02483 23.5 8.95001 23.5 12C23.5 15.05 22.2885 17.9752 20.1318 20.1318C17.9752 22.2885 15.05 23.5 12 23.5C8.95001 23.5 6.02483 22.2885 3.86816 20.1318C1.7115 17.9752 0.5 15.05 0.5 12C0.5 8.95001 1.7115 6.02483 3.86816 3.86816C6.02483 1.7115 8.95001 0.5 12 0.5ZM12 1C9.08262 1 6.28458 2.15878 4.22168 4.22168C2.15878 6.28458 1 9.08262 1 12C1 14.9174 2.15878 17.7154 4.22168 19.7783C6.28458 21.8412 9.08262 23 12 23C14.9174 23 17.7154 21.8412 19.7783 19.7783C21.8412 17.7154 23 14.9174 23 12C23 9.08262 21.8412 6.28458 19.7783 4.22168C17.7154 2.15878 14.9174 1 12 1ZM12.0029 15.5C12.1343 15.5 12.2644 15.5259 12.3857 15.5762C12.507 15.6264 12.6171 15.7001 12.71 15.793C12.8028 15.8858 12.8765 15.9959 12.9268 16.1172C12.977 16.2385 13.0029 16.3687 13.0029 16.5C13.0029 16.7652 12.8975 17.0195 12.71 17.207C12.5224 17.3945 12.2681 17.5 12.0029 17.5C11.7377 17.5 11.4834 17.3946 11.2959 17.207C11.1084 17.0195 11.0029 16.7652 11.0029 16.5L11.0078 16.4023C11.0174 16.3045 11.0413 16.2083 11.0791 16.1172C11.1293 15.9959 11.2031 15.8858 11.2959 15.793C11.3887 15.7002 11.4989 15.6264 11.6201 15.5762C11.7414 15.5259 11.8716 15.5 12.0029 15.5ZM12 6.49219C12.1201 6.49219 12.2389 6.51759 12.3486 6.56641C12.4584 6.61531 12.5573 6.68702 12.6377 6.77637C12.718 6.86559 12.7783 6.97084 12.8154 7.08496C12.8525 7.19929 12.8652 7.32089 12.8525 7.44043V7.44238L12.3271 12.7031V12.7109C12.3201 12.7926 12.282 12.8684 12.2217 12.9238C12.1612 12.9794 12.0822 13.0107 12 13.0107C11.9178 13.0107 11.8388 12.9794 11.7783 12.9238C11.718 12.8684 11.6799 12.7926 11.6729 12.7109V12.7031L11.1475 7.44238V7.44043L11.1426 7.35059C11.1425 7.26069 11.1567 7.17082 11.1846 7.08496C11.2217 6.97084 11.282 6.86558 11.3623 6.77637C11.4427 6.68702 11.5416 6.61531 11.6514 6.56641C11.7611 6.51759 11.8799 6.49219 12 6.49219Z" stroke="#FBFBFB"/>
</g>
<defs>
<clipPath id="clip0_13945_59927">
<rect width="24" height="24" fill="white"/>
</clipPath>
</defs>
</svg>

<svg width="24" height="24" fill="none" xmlns="http://www.w3.org/2000/svg"><g clip-path="url(#clip0_13945_59927)"><path d="M12 .5a11.5 11.5 0 110 23 11.5 11.5 0 010-23zm0 .5a11 11 0 100 22 11 11 0 000-22zm.003 14.5a1 1 0 11-1 1l.005-.098a.999.999 0 01.995-.902zM12 6.492a.858.858 0 01.815.593c.037.114.05.236.037.355v.002l-.525 5.261v.008a.328.328 0 01-.654 0v-.008l-.525-5.26V7.44l-.005-.09A.858.858 0 0112 6.493z" stroke="#FBFBFB"/></g><defs><clipPath id="clip0_13945_59927"><path fill="#fff" d="M0 0h24v24H0z"/></clipPath></defs></svg>
